src/24/actions/mail-encrypted-full.svg

<svg xmlns="http://www.w3.org/2000/svg" viewBox="0 0 24 24">
  <defs id="defs3051">
    <style type="text/css" id="current-color-scheme">
      .ColorScheme-Text {
        color:#5d656b;
      }
      </style>
  </defs>
 <path style="fill:currentColor;fill-opacity:1;stroke:none" 
     d="m 2,4 0,1 0,8 0,6 0,0.414062 L 2,20 l 1,0 6,0 6,0 0,-1 -6,0 -6,0 0,-0.585938 0.4628906,-0.46289 6.2675782,-6.267578 1.4531252,1.451172 0.814453,0.814453 0.002,0 0.816406,-0.814453 1.453125,-1.451172 L 15.585938,13 17,13 14.976562,10.976562 20.728516,5.2226562 20.951172,5 21,5 21,5.2226562 21,13 22,13 22,4 21.951172,4 21,4 20.537109,4 3.4628906,4 3,4 Z M 3,5 3.0488281,5 3.2714844,5.2226562 9.0234375,10.976562 3,17 3,13 3,5.2226562 Z M 4.4628906,5 19.537109,5 12,12.537109 Z M 19.5,14 C 18.669,14 18,14.669 18,15.5 l 0,1.5 -1,0 0,3 5,0 0,-3 -1,0 0,-1.5 C 21,14.669 20.331,14 19.5,14 Z m 0,1 c 0.277,0 0.5,0.223 0.5,0.5 l 0,1.5 -1,0 0,-1.5 C 19,15.223 19.223,15 19.5,15 Z"
     class="ColorScheme-Text"
     />
</svg>

<svg xmlns="http://www.w3.org/2000/svg" viewBox="0 0 24 24"><path d="M2 4v16h13v-1H3v-.586l.463-.463 6.267-6.267 1.454 1.45.814.815H12l.816-.814 1.454-1.451L15.586 13H17l-2.023-2.023 5.752-5.754L20.95 5H21v8h1V4H3zm1 1h.049l.222.223 5.752 5.754L3 17V5.223zm1.463 0h15.074L12 12.537zM19.5 14c-.831 0-1.5.669-1.5 1.5V17h-1v3h5v-3h-1v-1.5c0-.831-.669-1.5-1.5-1.5zm0 1c.277 0 .5.223.5.5V17h-1v-1.5c0-.277.223-.5.5-.5z" fill="currentColor" color="#5d656b"/></svg>
